assets/svg/1F601.svg

<svg xmlns="http://www.w3.org/2000/svg" viewBox="0 0 64 64" enable-background="new 0 0 64 64"><circle fill="#fbb041" cx="32" cy="32" r="32"/><g opacity=".987"><path fill="#e79d3c" d="m15.229 41.25c-5.668-12.163-5.924-25.26-.799-36.09-8.686 5.72-14.43 15.55-14.43 26.732 0 17.676 14.326 32 32 32 .312 0 .623-.039.936-.05-7.336-6.171-13.518-13.604-17.707-22.595"/></g><path fill="#fff" d="m54 47.5c0 4.143-3.478 7.5-7.768 7.5h-27.964c-4.29 0-7.768-3.357-7.768-7.5l0 0c0-4.143 3.478-7.5 7.768-7.5h27.965c4.289 0 7.767 3.357 7.767 7.5l0 0"/><g fill="#ccc"><path d="m10 46h44v2h-44z"/><path d="m19 38h2v17h-2z"/><path d="m27 38h2v17h-2z"/><path d="m36 38h2v17h-2z"/><path d="m44 38h2v17h-2z"/></g><path fill="#a5692d" d="m46.23 56h-27.964c-5.111 0-9.268-4.04-9.268-9s4.157-9 9.268-9h27.965c5.11 0 9.268 4.04 9.268 9s-4.158 9-9.269 9m-27.964-15c-3.456 0-6.268 2.691-6.268 6s2.812 6 6.268 6h27.965c3.456 0 6.268-2.691 6.268-6s-2.812-6-6.268-6h-27.965"/><g fill="#633d19"><path d="m29.451 26.994c-1.641-4.479-5.359-8.765-10.497-8.664-4.792.092-7.679 5.16-9.24 8.999-.975 2.396 2.905 3.427 3.866 1.065 1.01-2.465 2.482-5.184 5.19-6.01 3.104-.946 5.948 3.314 6.814 5.681.883 2.405 4.758 1.366 3.867-1.068"/><path d="m36.421 26.951c1.638-4.479 5.358-8.766 10.496-8.666 4.792.092 7.679 5.161 9.241 8.998.974 2.396-2.907 3.43-3.869 1.066-1-2.464-2.481-5.185-5.189-6.01-3.104-.949-5.949 3.312-6.815 5.678-.881 2.408-4.757 1.367-3.864-1.065"/></g></svg>

<?xml version="1.0" encoding="UTF-8" standalone="no"?>
<!-- Generator: Adobe Illustrator 16.0.0, SVG Export Plug-In . SVG Version: 6.00 Build 0)  -->

<svg
   xmlns:dc="http://purl.org/dc/elements/1.1/"
   xmlns:cc="http://creativecommons.org/ns#"
   xmlns:rdf="http://www.w3.org/1999/02/22-rdf-syntax-ns#"
   xmlns:svg="http://www.w3.org/2000/svg"
   xmlns="http://www.w3.org/2000/svg"
   xmlns:sodipodi="http://sodipodi.sourceforge.net/DTD/sodipodi-0.dtd"
   xmlns:inkscape="http://www.inkscape.org/namespaces/inkscape"
   version="1.1"
   id="Layer_1"
   x="0px"
   y="0px"
   width="64px"
   height="64px"
   viewBox="0 0 64 64"
   enable-background="new 0 0 64 64"
   xml:space="preserve"
   inkscape:version="0.48.5 r10040"
   sodipodi:docname="1F601.svg"
   inkscape:export-filename="D:\TESTINGEMOJI\SVGTEST\1F601.png"
   inkscape:export-xdpi="90"
   inkscape:export-ydpi="90"><metadata
   id="metadata3338"><rdf:RDF><cc:Work
       rdf:about=""><dc:format>image/svg+xml</dc:format><dc:type
         rdf:resource="http://purl.org/dc/dcmitype/StillImage" /><dc:title></dc:title></cc:Work></rdf:RDF></metadata><defs
   id="defs3336" /><sodipodi:namedview
   pagecolor="#ffffff"
   bordercolor="#666666"
   borderopacity="1"
   objecttolerance="10"
   gridtolerance="10"
   guidetolerance="10"
   inkscape:pageopacity="0"
   inkscape:pageshadow="2"
   inkscape:window-width="640"
   inkscape:window-height="480"
   id="namedview3334"
   showgrid="false"
   inkscape:zoom="3.6875"
   inkscape:cx="32"
   inkscape:cy="32"
   inkscape:window-x="723"
   inkscape:window-y="272"
   inkscape:window-maximized="0"
   inkscape:current-layer="Layer_1" />
<g
   id="g3298">
	<g
   id="g3300">
		<g
   id="g3302">
			<circle
   fill="#FBB041"
   cx="32"
   cy="32"
   r="32"
   id="circle3304" />
		</g>
	</g>
	<g
   opacity="0.9866"
   id="g3306">
		<g
   id="g3308">
			<g
   id="g3310">
				<path
   fill="#E79D3C"
   d="M15.229,41.251C9.561,29.088,9.305,15.99,14.43,5.164C5.744,10.884,0,20.714,0,31.896      c0,17.676,14.326,32,32,32c0.312,0,0.623-0.039,0.936-0.05C25.6,57.675,19.418,50.242,15.229,41.251z"
   id="path3312" />
			</g>
		</g>
	</g>
	<g
   id="g3314">
		<path
   fill="#FFFFFF"
   d="M54,47.5c0,4.143-3.478,7.5-7.768,7.5H18.268c-4.29,0-7.768-3.357-7.768-7.5l0,0    c0-4.143,3.478-7.5,7.768-7.5h27.965C50.522,40,54,43.357,54,47.5L54,47.5z"
   id="path3316" />
		<rect
   x="10"
   y="46"
   fill="#CCCCCC"
   width="44"
   height="2"
   id="rect3318" />
		<rect
   x="19"
   y="38"
   fill="#CCCCCC"
   width="2"
   height="17"
   id="rect3320" />
		<rect
   x="27"
   y="38"
   fill="#CCCCCC"
   width="2"
   height="17"
   id="rect3322" />
		<rect
   x="36"
   y="38"
   fill="#CCCCCC"
   width="2"
   height="17"
   id="rect3324" />
		<rect
   x="44"
   y="38"
   fill="#CCCCCC"
   width="2"
   height="17"
   id="rect3326" />
		<path
   fill="#A5692D"
   d="M46.232,56H18.268C13.157,56,9,51.963,9,47s4.157-9,9.268-9h27.965c5.11,0,9.268,4.037,9.268,9    S51.343,56,46.232,56z M18.268,41C14.812,41,12,43.691,12,47s2.812,6,6.268,6h27.965c3.456,0,6.268-2.691,6.268-6    s-2.812-6-6.268-6H18.268z"
   id="path3328" />
	</g>
	<path
   fill="#633D19"
   d="M29.451,26.994c-1.641-4.479-5.359-8.765-10.497-8.664c-4.792,0.092-7.679,5.16-9.24,8.999   c-0.975,2.396,2.905,3.427,3.866,1.065c1.005-2.465,2.482-5.184,5.19-6.013c3.104-0.946,5.948,3.314,6.814,5.681   C26.467,30.467,30.342,29.428,29.451,26.994z"
   id="path3330" />
	<path
   fill="#633D19"
   d="M36.421,26.951c1.638-4.479,5.358-8.766,10.496-8.666c4.792,0.092,7.679,5.161,9.241,8.998   c0.974,2.396-2.907,3.43-3.869,1.066c-1.003-2.464-2.481-5.185-5.189-6.011c-3.104-0.949-5.949,3.312-6.815,5.678   C39.404,30.424,35.528,29.383,36.421,26.951z"
   id="path3332" />
</g>
</svg>
